X:1
T:Daintie Davie
M:4/4
L:1/8
K:F
 z4 z2 c2| f2 a2f-g a2|f-ga-b a2 gf| e2 g2 c2 g2|e-fg-a g2 fe| f3 g a2g-a|\
b-ag-f e2d-c|d-ef-ga-gf-e| d4 f2 z2| c3 B A2G-A|G-FE-D F4| F2 c2A-Bc-A|\
 F2 c2 A2 f2| c3 B A2G-A|G-FE-D F2- FF| F2 f2g-fe-f| d4 f2 z2|
